icon-themes/sifr_svg/cmd/sc_paste.svg

<svg viewBox="0 0 16 16" xmlns="http://www.w3.org/2000/svg"><path d="m5 1v3h6v-3zm-2 1c-.554 0-1 .446-1 1v11c0 .554.446 1 1 1h10c.554 0 1-.446 1-1v-11c0-.553742-.38-1-1-1h-1v2 9h-8v-8-1-2z" fill="#555753"/></svg>

<svg xmlns="http://www.w3.org/2000/svg" viewBox="0 0 16 16">
  <path
     style="fill:#555753"
     d="m 5,1 v 3 h 6 V 1 Z M 3,2 C 2.446,2 2,2.446 2,3 v 11 c 0,0.554 0.446,1 1,1 h 10 c 0.554,0 1,-0.446 1,-1 V 3 C 14,2.446258 13.62,2 13,2 h -1 v 2 0 9 H 4 V 5 4 2 Z"
     />
</svg>
